icons/boy_1015y.svg

<svg width="48" height="48" viewBox="0 0 48 48" fill="none" xmlns="http://www.w3.org/2000/svg">
<path fill-rule="evenodd" clip-rule="evenodd" d="M24 6C21.2386 6 19 8.23858 19 11C19 13.7614 21.2386 16 24 16C26.7614 16 29 13.7614 29 11C29 8.23858 26.7614 6 24 6ZM21 11C21 9.34315 22.3431 8 24 8C25.6569 8 27 9.34315 27 11C27 12.6569 25.6569 14 24 14C22.3431 14 21 12.6569 21 11Z" fill="black"/>
<path fill-rule="evenodd" clip-rule="evenodd" d="M35 25.0227C35 22.3291 33.3473 19.9277 30.9701 19.2144C30.8306 18.5217 30.2187 18 29.4848 18H18.5152C17.7813 18 17.1694 18.5217 17.0299 19.2144C14.6527 19.9277 13 22.3291 13 25.0227C13 27.7374 14.6706 30.1444 17.0752 30.8427L17.058 31.2828C17.0199 31.474 17 31.671 17 31.8718L17 39.1775C17 40.7552 18.222 42.0633 19.7961 42.1705C21.3702 42.2778 22.7583 41.1475 22.9723 39.5843L23.7661 33.785H24.3218L25.022 39.5398C25.2136 41.1146 26.598 42.268 28.1815 42.172C29.765 42.076 31 40.7638 31 39.1775V30.9586C31 30.9125 30.999 30.8667 30.9969 30.8212C33.3627 30.0961 35 27.7101 35 25.0227ZM15 25.0227C15 22.6948 16.6675 21 18.5 21H20.9982C20.9965 21.1584 20.9935 21.3126 20.9887 21.4634C20.9661 22.176 20.9033 22.6954 20.7798 23.0762C20.6652 23.4296 20.5151 23.6149 20.3234 23.7357C20.1074 23.8718 19.7194 24 19 24V24.007C18.6772 23.9999 18.3669 23.9999 18.0805 24L18 24V26C19.158 26 20.2349 26.0098 21.0273 26.2645C21.4024 26.3851 21.6304 26.5369 21.7654 26.6977C21.8869 26.8425 22 27.0729 22 27.5C22 28.0262 21.9103 28.2953 21.8272 28.4355C21.7584 28.5516 21.6495 28.6572 21.3989 28.7512C21.1217 28.8551 20.7182 28.9258 20.1251 28.9629C19.5378 28.9996 18.8431 29 18 29V29.0043C16.3795 28.7341 15 27.1328 15 25.0227ZM23.2971 25.4117C22.9965 25.0536 22.6305 24.7938 22.2445 24.6033C22.436 24.3229 22.5779 24.0149 22.6823 23.693C22.8955 23.0354 22.9636 22.2855 22.9877 21.527C22.9931 21.3572 22.9964 21.1811 22.9981 21H25.0019C25.0036 21.1811 25.0069 21.3572 25.0123 21.527C25.0364 22.2855 25.1045 23.0354 25.3177 23.693C25.5398 24.3781 25.9322 25.0005 26.6104 25.4278C27.2641 25.8397 28.0733 26 29 26V29.1079L28.856 29.1217L28.9107 30.5222L28.9525 30.6523C28.9831 30.7475 29 30.8501 29 30.9586V39.1775C29 39.7063 28.5883 40.1436 28.0605 40.1756C27.5327 40.2076 27.0712 39.8232 27.0073 39.2982L26.0932 31.785H22.0212L20.9908 39.3131C20.9194 39.8341 20.4567 40.2109 19.932 40.1752C19.4073 40.1394 19 39.7034 19 39.1775V31.8718C19 31.7907 19.0095 31.7131 19.0269 31.6395L19.0493 31.545L19.0707 30.9964C19.4898 30.9919 19.8851 30.9818 20.2499 30.959C20.9068 30.9179 21.545 30.8324 22.1011 30.6238C22.6838 30.4053 23.1999 30.0422 23.5478 29.4551C23.8814 28.8922 24 28.2238 24 27.5C24 26.6771 23.7659 25.97 23.2971 25.4117ZM31 28.6539C32.1497 28.0224 33 26.6794 33 25.0227C33 22.6948 31.3325 21 29.5 21H27.0018C27.0035 21.1584 27.0065 21.3126 27.0113 21.4634C27.0339 22.176 27.0967 22.6954 27.2202 23.0762C27.3348 23.4296 27.4849 23.6149 27.6766 23.7357C27.8926 23.8718 28.2806 24 29 24H31V28.6539Z" fill="black"/>
</svg>

<svg
  xmlns="http://www.w3.org/2000/svg"
  width="24"
  height="24"
  viewBox="0 0 24 24"
  fill="none"
  stroke="currentColor"
  stroke-width="2"
  stroke-linecap="round"
  stroke-linejoin="round"
>
  <path
    fill-rule="evenodd"
    d="M24 6a5 5 0 1 0 0 10 5 5 0 0 0 0-10m-3 5a3 3 0 1 1 6 0 3 3 0 0 1-6 0"
    clip-rule="evenodd"
  />
  <path
    fill-rule="evenodd"
    d="M35 25.023c0-2.694-1.653-5.095-4.03-5.809A1.516 1.516 0 0 0 29.485 18h-10.97c-.734 0-1.346.522-1.485 1.214-2.377.714-4.03 3.115-4.03 5.809 0 2.714 1.67 5.121 4.075 5.82l-.017.44a3 3 0 0 0-.058.589v7.306a3 3 0 0 0 5.972.406l.794-5.799h.556l.7 5.755A3 3 0 0 0 31 39.178v-8.22l-.003-.137c2.366-.725 4.003-3.11 4.003-5.798m-20 0C15 22.695 16.668 21 18.5 21h2.498q-.003.237-.01.463c-.022.713-.085 1.232-.208 1.613-.115.354-.265.539-.457.66-.216.136-.604.264-1.323.264v.007a41 41 0 0 0-.92-.007H18v2c1.158 0 2.235.01 3.027.265.375.12.603.272.738.433.122.145.235.375.235.802 0 .526-.09.795-.173.936-.069.116-.178.221-.428.315-.277.104-.68.175-1.274.212C19.538 29 18.843 29 18 29v.004c-1.62-.27-3-1.871-3-3.981m8.297.389a3.2 3.2 0 0 0-1.053-.809c.192-.28.334-.588.438-.91.213-.658.282-1.408.306-2.166q.007-.255.01-.527h2.004q.003.272.01.527c.024.758.093 1.508.306 2.166.222.685.614 1.307 1.292 1.735.654.412 1.463.572 2.39.572v3.108l-.144.014.055 1.4.041.13q.047.143.048.307v8.219a1 1 0 0 1-1.993.12l-.914-7.513h-4.072l-1.03 7.528A1 1 0 0 1 19 39.177v-7.305q0-.122.027-.232l.022-.095.022-.549q.63-.004 1.179-.037c.657-.041 1.295-.127 1.851-.335.583-.219 1.099-.582 1.447-1.169.333-.563.452-1.231.452-1.955 0-.823-.234-1.53-.703-2.088M31 28.654c1.15-.632 2-1.975 2-3.631C33 22.695 31.332 21 29.5 21h-2.498q.003.237.01.463c.022.713.085 1.232.208 1.613.115.354.265.539.457.66.216.136.604.264 1.323.264h2z"
    clip-rule="evenodd"
  />
</svg>
